X:1
T:Title
%%score ( 1 2 ) { 3 | 4 }
L:1/8
Q:1/4=92
M:4/4
K:G
V:1 treble nm="Grand Piano, Soprano"
V:2 treble 
V:3 bass nm="Choir Pad, The Old Fountain"
V:4 bass 
V:1
 D>D [DG]>[DG] [DG]>[DG] [DG]2 | [DG]>[DF] [CE]>[CE] [CE]>[CE] [CE]2 | %2
w: By~William~James~Kirkpatrick * * * * * *||
 [CF]>[CE] [B,D]>[B,D] [B,D]>[B,D] [DG][DG] | [GB]>[GB] [FA]6 | %4
w: ||
 [DG]>[DA] [GB]>[GB] [GB]>[GB] [GB]2 | [DA]>[DG] [GB]>[GB] [DG]>[CE] [B,D]2 | %6
w: ||
 D>D [CE]>[DF] [EG]>[^DA] [=DB][B,G] | [DB]>[CA] [B,G]6 | [GB]>[Gc] [Gd]>[Gd] [Gd]>[Ge] [Gd]>[GB] | %9
w: |||
 [Gd]>[GB] G2 G>A [GB]2 | [GB]>[Gc] [Gd]>[Gd] [Gd]>[Ge] [Gd]>[GB] | [Gd]>[GB] A2- [GA-]2 [DA]2- | %12
w: |||
 [DA]D [DG]>[DG] [DG]>[DG] [DG][GB]- | [GB]G [FA]<[FA] [FA]>[FA] [FA]<[Fc] | %14
w: ||
 [DB]>[Dc] [Dd][GB] [DG]>[CE] [B,D]<[DB] | [FB]>[FA] G2 E>E D2- | D4 z4 |] %17
w: |||
V:2
 x8 | x8 | x8 | x8 | x8 | x8 | x8 | x8 | x8 | z2 D4 z2 | x8 | z2 F2 z4 | x8 | x8 | x8 | x8 | x8 |] %17
V:3
 D,>D, B,>B, B,>B, B,2 | G,>G, G,>G, G,>G, G,2 | G,>G, G,>G, G,>G, B,B, | D>D D6 | %4
 B,>C D>D D>D D2 | C>B, D>D[K:bass] B,>G, G,2 | G,>G, G,>G, G,>G, G,G, | G,>F, G,6 | %8
 D>D B,>B, B,>[K:treble]C B,>D | B,>D B,2 B,>C D2 | D>D[K:bass] B,>B, B,>C B,>[K:treble]D | %11
 B,>D D2 ^C2 =C2- | C[K:bass]B, B,>B, B,>B, B,[K:treble]D- | DB, C<C C<C C<[K:bass]A, | %14
 G,>A, B,D G,>G, G,<G, | D>C B,2 C>C B,2- | B,4 z4 |] %17
V:4
 z2 G,,>G,, G,,>G,, G,,2 | B,,>B,, C,>C, C,>C, C,2 | C,>C, G,,>G,, G,,>G,, G,G, | G,>G, D,6 | %4
 G,>G, G,>G, G,>G, G,2 | G,>G, G,>G, G,2 z2 | B,,>B,, C,>C, C,>C, D,D, | D,>D, G,,6 | %8
 G,>G, G,>G, G,>G, G,>G, | G,>G, G,6 | G,>G, G,>G, G,>G, G,>G, | G,>G, D,2 E,2 F,2- | %12
 F,G, G,>G, G,>G, G,G,- | G,G, D,<D, D,<D, D,<D, | z z/ G,/ G,G, B,,>B,, D,<D, | D,>D, G,,6- | %16
 G,,4 z4 |] %17

